X:1
T:Title
%%score { ( 1 3 ) | ( 2 4 ) }
L:1/8
M:6/4
K:Ab
V:1 treble nm="Grand Piano"
V:3 treble 
V:2 bass 
V:4 bass 
V:1
 z6 z4[Q:1/4=156] [CE]2 | [CA]6 [DA]6 | [CA]6- [CA]2 C2 D2 | E2 B2 A2 G2 F2 G2 | %4
[M:5/4] A2- A2- A6 |[M:1/4] E2 |[M:6/4] B6 B6 | B6- B2 A2 G2 | F2 G2 A2 G4 [=DF]2 | %9
[M:5/4] E2- E2- E6 |[M:1/4] E2 |[M:6/4] c6 c6 | c6- c2 B2 A2 | A2 [=EG]2 [FA]2 [FB]4 [Fc]2 | %14
[M:5/4] [Fd]2- [Fd]2- [Fd]6 |[M:1/4] [Fd]2 |[M:6/4] z6 [F=d]6 | [Ee]6 z6 | [Ac]6 [DGB]6 | [CEA]12 | %20
 c6 .c6 | c6 .c6 | .d6 .c6 | [Gd]12 | d6 .d6 | d6 .d6 | c2 c2 c2 _c4 c2 | c12 | c6 .c6 | c6 .c6 | %30
 f2 f2 f2 e4 e2 | d12 | [Fd]2 [Fd]2 [Fd]2 [F=d]2 [Fd]2 [Fd]2 | %33
 [Ee]2 [Ee]2 [Af]2 [Ae]2 [EAc]2 [CFA]2 | c6 B6 |[M:5/4] [A,A]2- [A,-EA-]2 [A,-FA-]2 [A,EA]4 |] %36
V:2
 z6 z4 [A,,A,]2 | [A,,E,]6 [A,,F,]6 | [A,,E,]6- [A,,E,]2 C,2 D,2 | E,2 B,2 A,2 G,2 F,2 G,2 | %4
[M:5/4] A,2- A,2- A,6 |[M:1/4] [A,C]2 |[M:6/4] [G,B,E]6 [F,A,=D]6 | %7
 [E,G,E]6- [E,G,E]2 [F,A,F]2 [G,B,E]2 | [A,C]2 [G,B,E]2 [F,CF]2 [B,E]4 [B,,A,]2 | %9
[M:5/4] [E,G,]2- [E,G,]2- [E,G,]6 |[M:1/4][K:treble] [A,C]2 |[M:6/4] [A,E]6 [G,B,=E]6 | %12
 [F,A,F]6- [F,A,F]2 [G,B,=E]2 [A,CF]2 | [F,CF]2 [C,C]2 [F,C]2 [D,B,]4 [C,=A,]2 | %14
[M:5/4] [B,,B,]2- [B,,B,]2- [B,,B,]6 |[M:1/4] [B,,B,]2 | %16
[M:6/4] [B,,B,]4 [B,,B,]2 [A,,B,]2 A,,2 A,,2 | G,,4 G,,2 F,,2 F,2 B,,2 | [E,E]6 [E,,E,]6 | %19
 [A,,A,]12 | [A,,A,]6 [A,,A,]4 [A,,A,]2 | [A,,E,]6 [A,,A,]4 [A,,A,]2 | %22
 [E,B,]2 [E,B,]2 [E,B,]2 [E,=A,]4 [E,A,]2 | [E,B,]12 | [E,B,]6 [E,B,]4 [E,B,]2 | %25
 [E,B,]6 .[E,B,E]4 [E,E]2 | A6 A6 | [A,EA]12 | [A,,A,]6 [A,,A,]4 [A,,A,]2 | %29
 [A,,A,]6 [A,,A,]4 [A,,A,]2 | F6[K:treble] _G6 | [B,DF]12 | %32
 [B,,B,]2 [B,,B,]2 [B,,B,]2 [_C,A,]2 [C,A,]2 [C,A,]2 | [C,A,]2 [C,A,]2 [D,D]2 [E,C]2 E,2 F,2 | %34
 z2 =D2 D2 z2[K:treble] F2 _D2 |[M:5/4][K:bass] z2 C2 D2 C4 |] %36
V:3
 x12 | x12 | x12 | x12 |[M:5/4] x10 |[M:1/4] x2 |[M:6/4] x12 | x12 | x12 |[M:5/4] x10 |[M:1/4] x2 | %11
[M:6/4] x12 | x12 | x12 |[M:5/4] x10 |[M:1/4] x2 |[M:6/4] [F=d]6 z2 B,2 B,2 | %17
 [G,B,]4 B,2 [CFe]2 [CFA]2 [FBd]2 | x12 | x12 | A2 G2 F2 E2 F2 [Gc]2 | A2 G2 A2 E2 F2 [Ac]2 | %22
 G2- [G-d]2 [Gd]2 _G4- [Gc]2 | x12 | B2 A2 G2 A2 G2 [Fd]2 | B2 A2 G2 z2 F2 [Gd]2 | x12 | x12 | %28
 A2 G2 F2 A2 G2 [Fc]2 | E2 F2 G2 A2 G2 [Ac]2 | x12 | x12 | x12 | x12 | [=DA]2 F2 A2 .[_DG]4 E2 | %35
[M:5/4] [CE]2 z2 z2 z4 |] %36
V:4
 x12 | x12 | x12 | x12 |[M:5/4] x10 |[M:1/4] x2 |[M:6/4] x12 | x12 | x12 |[M:5/4] x10 | %10
[M:1/4][K:treble] x2 |[M:6/4] x12 | x12 | x12 |[M:5/4] x10 |[M:1/4] x2 |[M:6/4] x12 | x12 | x12 | %19
 x12 | x12 | x12 | x12 | x12 | x12 | x12 | [A,E]2 [A,E]2 [A,E]2 [A,=D]4 [A,D]2 | x12 | x12 | x12 | %30
 [F,=A,]2 [F,A,]2 [F,A,]2[K:treble] [A,C]4 [A,C]2 | x12 | x12 | x12 | B,,6 E,6[K:treble] | %35
[M:5/4][K:bass] A,,2- A,,2- A,,6 |] %36

